!!!OTL: No_27_Fourth_Song_of_the_Mî'nîsîno'wuck.krn
!!!REG: Great_Lakes
!!!LANG: Non-Tone
!!!LING_GROUP: Algonquin
!!!SOCIAL_FUNCTION: songs of war
**kern
*staff1
=1-
*clefG2
*k[f#c#g#d#a#]
*M7/4
4f#/
4f#/
2f#/
4d#/
4c#/
4c#/
=2
4f#/
4f#/
4e/
4d#/
4c#/
4d#/
4c#/
=3||
*M4/4
[2B/
2B/]
*clefF4
=4||
*M7/4
4B\
4B\
2B\
4G#\
2G#\
=5
4c#\
4c#\
4c#\
4c#\
4c#\
4d#\
4d#\
=6||
*M4/4
[2c#\
2c#\]
=7||
*M7/4
4d#\
4d#\
2c#\
4B\
4B\
4B\
=8
4B\
4B\
4G#\
4B\
4B\
4c#\
4c#\
=9||
*M4/4
[2B\
2B\]
=10||
*M7/4
4B\
4B\
2B\
4G#\
2F#\
=11
4B\
4B\
4G#\
4G#\
4F#\
4G#\
4G#\
=12||
*M4/4
[2F#\
2F#\]
=13||
*M7/4
4F#\
4F#\
2F#\
4D#\
2C#/
=14
4F#\
4F#\
4D#\
4D#\
4C#/
4D#\
4C#/
=15||
*M4/4
[2BB/
2BB/]
==
*-
